;FLAVOR:Marlin
;TIME:22723
;Filament used: 16.7676m
;Layer height: 0.2
;MINX:31.939
;MINY:0
;MINZ:0.2
;MAXX:178.075
;MAXY:210
;MAXZ:12.6
;TARGET_MACHINE.NAME:Anycubic i3 Mega
;Generated with Cura_SteamEngine 5.9.0
M140 S90
M105
M190 S90
M104 S240
M105
M109 S240
M82 ;absolute extrusion mode
G21 ;metric values
G90 ;absolute positioning
M82 ;set extruder to absolute mode
M107 ;start with the fan off
G28 X0 Y0 ;move X/Y to min endstops
G28 Z0 ;move Z to min endstops
G1 Z15.0 F100 ;move the platform down 15mm
G92 E0 ;zero the extruded length
G1 F200 E3 ;extrude 3mm of feed stock
G92 E0 ;zero the extruded length again
G1 F100
G0 Y20 F100
M117 Printing...
G5
G92 E0
G92 E0
G1 F2400 E-6
;LAYER_COUNT:63
;LAYER:0
M107
M204 S3000
M205 X10 Y10
G1 F600 Z0.275
G0 F3000 X106.485 Y0.00 Z0.275
M204 S1800
M205 X8 Y8
;TYPE:SKIRT
G1 F600 Z0.2
G1 F2400 E0
G1 X101.836 Y1.664 E0.22993
G1 X100.709 Y2.094 E0.28609
G1 X99.85 Y2.472 E0.32979
G1 X92.018 Y6.176 E0.73321
G1 X90.615 Y6.877 E0.80624
G1 X89.928 Y7.274 E0.84319
G1 X82.595 Y11.67 E1.2413
G1 X81.112 Y12.603 E1.32288
G1 X73.749 Y18.064 E1.74974
G1 X72.65 Y18.915 E1.81447
G1 X71.999 Y19.473 E1.85439
G1 X65.554 Y25.312 E2.25934
G1 X64.397 Y26.407 E2.33352
G1 X63.924 Y26.912 E2.36574
G1 X58.121 Y33.314 E2.76808
G1 X57.113 Y34.471 E2.83954
G1 X56.645 Y35.08 E2.8753
G1 X51.425 Y42.118 E3.28332
G1 X50.624 Y43.247 E3.34778
G1 X50.215 Y43.904 E3.38382
G1 X45.755 Y51.346 E3.78781
G1 X44.96 Y52.733 E3.86225
G1 X40.975 Y61.147 E4.29576
G1 X40.354 Y62.531 E4.3664
G1 X40.082 Y63.251 E4.40224
G1 X37.134 Y71.492 E4.80979
G1 X36.671 Y72.886 E4.87818
G1 X36.47 Y73.641 E4.91457
G1 X34.389 Y81.945 E5.31319
G1 X34.038 Y83.463 E5.38574
G1 X32.637 Y92.853 E5.82782
G1 X32.457 Y94.269 E5.89428
G1 X32.403 Y95.11 E5.93352
G1 X31.984 Y103.666 E6.33241
G1 X31.939 Y105.168 E6.40238
G1 X31.964 Y105.936 E6.43816
G1 X32.388 Y114.566 E6.84049
G1 X32.492 Y116.087 E6.91148
G1 X32.595 Y116.866 E6.94807
G1 X33.876 Y125.497 E7.35437
G1 X34.118 Y126.926 E7.42185
G1 X34.288 Y127.652 E7.45657
G1 X36.383 Y136.012 E7.85789
G1 X36.758 Y137.388 E7.9243
G1 X37.031 Y138.219 E7.96503
G1 X39.953 Y146.388 E8.36901
G1 X40.492 Y147.803 E8.43952
G1 X40.804 Y148.489 E8.47461
G1 X44.496 Y156.295 E8.87669
G1 X45.231 Y157.772 E8.95351
G1 X50.058 Y165.832 E9.39098
G1 X50.844 Y167.081 E9.4597
G1 X51.236 Y167.627 E9.49099
G1 X56.409 Y174.603 E9.89539
G1 X57.248 Y175.687 E9.95922
G1 X57.802 Y176.333 E9.99885
G1 X63.637 Y182.771 E10.40343
G1 X64.732 Y183.928 E10.47761
G1 X65.237 Y184.401 E10.50983
G1 X71.724 Y190.279 E10.91745
G1 X72.803 Y191.217 E10.98402
G1 X73.383 Y191.663 E11.01809
G1 X80.338 Y196.822 E11.42132
G1 X81.576 Y197.702 E11.49204
G1 X82.318 Y198.164 E11.53274
G1 X89.659 Y202.564 E11.93127
G1 X90.95 Y203.305 E12.00058
G1 X91.656 Y203.653 E12.03723
G1 X99.531 Y207.376 E12.44284
G1 X100.896 Y207.989 E12.51251
G1 X106.496 Y210 E12.78958
M204 S3000
M205 X10 Y10
G1 F2400 E6.78958
G0 F3000 X108.153 Y210
M204 S1800
M205 X8 Y8
G1 F2400 E12.78958
G1 X101.125 Y207.478 E13.13726
G1 X99.77 Y206.87 E13.20642
G1 X91.903 Y203.15 E13.61163
G1 X91.229 Y202.819 E13.64659
G1 X89.947 Y202.084 E13.7154
G1 X82.613 Y197.688 E14.11356
G1 X81.901 Y197.246 E14.15258
G1 X80.672 Y196.372 E14.2228
G1 X73.724 Y191.219 E14.6256
G1 X73.17 Y190.794 E14.65811
G1 X72.1 Y189.864 E14.72412
G1 X65.62 Y183.992 E15.13131
G1 X65.115 Y183.519 E15.16353
G1 X64.052 Y182.395 E15.23557
G1 X58.227 Y175.968 E15.63946
G1 X57.691 Y175.344 E15.67777
G1 X56.859 Y174.269 E15.74106
G1 X51.691 Y167.3 E16.14506
G1 X51.299 Y166.754 E16.17636
G1 X50.538 Y165.544 E16.24292
G1 X45.732 Y157.522 E16.67836
G1 X45.002 Y156.056 E16.75462
G1 X41.314 Y148.257 E17.15633
G1 X41.002 Y147.571 E17.19142
G1 X40.48 Y146.199 E17.25978
G1 X37.563 Y138.044 E17.66307
G1 X37.29 Y137.213 E17.7038
G1 X36.926 Y135.876 E17.76832
G1 X34.833 Y127.523 E18.1693
G1 X34.67 Y126.832 E18.20236
G1 X34.43 Y125.415 E18.26928
G1 X33.15 Y116.792 E18.6752
G1 X33.051 Y116.049 E18.7101
G1 X32.947 Y114.539 E18.78058
G1 X32.524 Y105.917 E19.18254
G1 X32.499 Y105.185 E19.21664
G1 X32.543 Y103.693 E19.28615
G1 X32.962 Y95.145 E19.68466
G1 X33.013 Y94.339 E19.72226
G1 X33.191 Y92.936 E19.78812
G1 X34.584 Y83.589 E20.22816
G1 X34.932 Y82.081 E20.30022
G1 X37.011 Y73.785 E20.69846
G1 X37.212 Y73.03 E20.73485
G1 X37.661 Y71.681 E20.80105
G1 X40.606 Y63.448 E21.2082
G1 X40.865 Y62.76 E21.24243
G1 X41.481 Y61.387 E21.3125
G1 X45.446 Y53.011 E21.74402
G1 X46.235 Y51.634 E21.81792
G1 X50.691 Y44.199 E22.22154
G1 X51.081 Y43.571 E22.25596
G1 X51.875 Y42.452 E22.31985
G1 X57.089 Y35.421 E22.72744
G1 X57.535 Y34.839 E22.76158
G1 X58.536 Y33.69 E22.83254
G1 X64.333 Y27.295 E23.23446
G1 X64.806 Y26.79 E23.26667
G1 X65.93 Y25.727 E23.33871
G1 X72.363 Y19.898 E23.74294
G1 X72.993 Y19.358 E23.78157
G1 X74.083 Y18.514 E23.84577
G1 X81.446 Y13.053 E24.27263
G1 X82.883 Y12.15 E24.35165
G1 X90.208 Y7.759 E24.74932
G1 X90.895 Y7.362 E24.78627
G1 X92.257 Y6.682 E24.85716
G1 X100.076 Y2.984 E25.25991
G1 X100.909 Y2.617 E25.30229
G1 X102.025 Y2.191 E25.35792
G1 X108.147 Y0.00 E25.66069
M204 S3000
M205 X10 Y10
G1 F2400 E19.66069
G0 F3000 X109.809 Y0.00
M204 S1800
M205 X8 Y8
G1 F2400 E25.66069
G1 X102.214 Y2.718 E26.03631
G1 X101.109 Y3.14 E26.09139
G1 X100.302 Y3.496 E26.13246
G1 X92.496 Y7.188 E26.53454
G1 X91.175 Y7.847 E26.60328
G1 X90.488 Y8.244 E26.64023
G1 X83.171 Y12.63 E27.03746
G1 X81.78 Y13.503 E27.11393
G1 X74.417 Y18.964 E27.54079
G1 X73.336 Y19.801 E27.60445
G1 X72.727 Y20.323 E27.6418
G1 X66.306 Y26.142 E28.0453
G1 X65.215 Y27.173 E28.1152
G1 X64.742 Y27.678 E28.14742
G1 X58.951 Y34.066 E28.5489
G1 X57.957 Y35.207 E28.61937
G1 X57.534 Y35.761 E28.65182
G1 X52.325 Y42.786 E29.05905
G1 X51.538 Y43.895 E29.12237
G1 X51.167 Y44.494 E29.15518
G1 X46.715 Y51.922 E29.55843
G1 X45.932 Y53.289 E29.63178
G1 X41.987 Y61.627 E30.0613
G1 X41.376 Y62.989 E30.13081
G1 X41.133 Y63.637 E30.16303
G1 X38.188 Y71.87 E30.57019
G1 X37.753 Y73.174 E30.63419
G1 X37.552 Y73.929 E30.67057
G1 X35.475 Y82.217 E31.06843
G1 X35.13 Y83.715 E31.14001
G1 X33.745 Y93.018 E31.57797
G1 X33.572 Y94.374 E31.64163
G1 X33.521 Y95.18 E31.67923
G1 X33.102 Y103.72 E32.07737
G1 X33.059 Y105.201 E32.14636
G1 X33.084 Y105.897 E32.17879
G1 X33.506 Y114.512 E32.58042
G1 X33.61 Y116.01 E32.65034
G1 X33.705 Y116.717 E32.68356
G1 X34.984 Y125.333 E33.08915
G1 X35.215 Y126.703 E33.15384
G1 X35.378 Y127.394 E33.1869
G1 X37.469 Y135.74 E33.58754
G1 X37.822 Y137.038 E33.65017
G1 X38.095 Y137.869 E33.6909
G1 X41.007 Y146.01 E34.0935
G1 X41.525 Y147.372 E34.16136
G1 X41.823 Y148.025 E34.19478
G1 X45.508 Y155.817 E34.59614
G1 X46.233 Y157.272 E34.67183
G1 X51.018 Y165.256 E35.10526
G1 X51.754 Y166.427 E35.16966
G1 X52.146 Y166.973 E35.20096
G1 X57.309 Y173.935 E35.60455
G1 X58.116 Y174.979 E35.666
G1 X58.652 Y175.603 E35.7043
G1 X64.467 Y182.019 E36.1075
G1 X65.498 Y183.11 E36.1774
G1 X66.003 Y183.583 E36.20962
G1 X72.476 Y189.449 E36.61638
G1 X73.537 Y190.371 E36.68183
G1 X74.064 Y190.774 E36.71272
G1 X81.006 Y195.922 E37.11516
G1 X82.226 Y196.79 E37.18488
G1 X82.908 Y197.212 E37.22222
G1 X90.235 Y201.604 E37.62
G1 X91.507 Y202.333 E37.68826
G1 X92.149 Y202.647 E37.72154
G1 X100.009 Y206.364 E38.1264
G1 X101.354 Y206.967 E38.19503
G1 X109.81 Y210 E38.61334
M204 S3000
M205 X10 Y10
G1 F2400 E32.61334
G0 F3000 X120.787 Y210
M204 S1800
M205 X8 Y8
G1 F2400 E38.61334
G1 X126.603 Y208.464 E38.89344
G1 X127.692 Y208.157 E38.94613
G1 X128.284 Y207.956 E38.97524
G1 X129.052 Y207.596 E39.01474
G1 X130.087 Y207.021 E39.06987
G1 X130.702 Y206.629 E39.10383
G1 X131.227 Y206.247 E39.13406
G1 X131.795 Y205.806 E39.16754
G1 X132.251 Y205.431 E39.19503
G1 X132.853 Y204.911 E39.23208
G1 X133.335 Y204.466 E39.26262
G1 X133.963 Y203.851 E39.30355
G1 X134.479 Y203.275 E39.33956
G1 X135.006 Y202.601 E39.3794
G1 X136.657 Y200.549 E39.50204
G1 X138.394 Y198.512 E39.62669
G1 X140.154 Y196.56 E39.74908
G1 X141.991 Y194.637 E39.87291
G1 X143.903 Y192.746 E39.99813
G1 X145.787 Y190.988 E40.11812
G1 X147.822 Y189.189 E40.24459
G1 X149.82 Y187.523 E40.36573
G1 X151.918 Y185.873 E40.49001
G1 X154.043 Y184.296 E40.61323
G1 X156.198 Y182.788 E40.73571
G1 X158.431 Y181.318 E40.86019
G1 X160.669 Y179.934 E40.98272
G1 X162.948 Y178.612 E41.1054
G1 X165.26 Y177.36 E41.22783
G1 X167.665 Y176.142 E41.35336
G1 X170.032 Y175.023 E41.47527
G1 X172.486 Y173.951 E41.59997
G1 X174.159 Y173.256 E41.68432
G1 X175.044 Y172.795 E41.73079
G1 X175.707 Y172.323 E41.76868
G1 X176.384 Y171.684 E41.81203
G1 X176.839 Y171.128 E41.84549
G1 X177.263 Y170.462 E41.88225
G1 X177.574 Y169.817 E41.91559
G1 X177.829 Y169.08 E41.95191
G1 X178.003 Y168.239 E41.9919
G1 X178.065 Y167.452 E42.02866
G1 X178.075 Y166.723 E42.0626
G1 X178.075 Y147.392 E42.96274
G1 X177.967 Y146.324 E43.01272
G1 X177.782 Y145.552 E43.04969
G1 X177.507 Y144.814 E43.08636
G1 X176.362 Y142.254 E43.21694
G1 X175.323 Y139.769 E43.34236
G1 X174.367 Y137.287 E43.46621
G1 X173.485 Y134.787 E43.58965
G1 X172.687 Y132.305 E43.71105
G1 X171.951 Y129.769 E43.83401
G1 X171.264 Y127.131 E43.96095
G1 X170.685 Y124.604 E44.08166
G1 X170.165 Y122.009 E44.2049
G1 X169.714 Y119.374 E44.32938
G1 X169.344 Y116.779 E44.45144
G1 X169.051 Y114.182 E44.57313
G1 X168.823 Y111.513 E44.69786
G1 X168.676 Y108.883 E44.82052
G1 X168.6 Y106.243 E44.9435
G1 X168.6 Y103.602 E45.06647
G1 X168.676 Y100.934 E45.19076
G1 X168.825 Y98.293 E45.31393
G1 X169.051 Y95.633 E45.43824
G1 X169.346 Y93.04 E45.55976
G1 X169.719 Y90.424 E45.6828
G1 X170.166 Y87.814 E45.8061
G1 X170.685 Y85.227 E45.92896
G1 X171.29 Y82.599 E46.05454
G1 X171.946 Y80.076 E46.17592
G1 X172.694 Y77.502 E46.30074
G1 X173.489 Y75.03 E46.42165
G1 X174.377 Y72.516 E46.5458
G1 X175.324 Y70.057 E46.6685
G1 X176.363 Y67.569 E46.79405
G1 X177.497 Y65.058 E46.92234
G1 X177.821 Y64.16 E46.96679
G1 X177.992 Y63.371 E47.00439
G1 X178.064 Y62.514 E47.04443
G1 X178.074 Y61.813 E47.07708
G1 X178.072 Y42.381 E47.98191
G1 X177.939 Y41.22 E48.03633
G1 X177.778 Y40.59 E48.06661
G1 X177.498 Y39.857 E48.10314
G1 X177.097 Y39.104 E48.14287
G1 X176.64 Y38.462 E48.17956
G1 X176.158 Y37.93 E48.21299
G1 X175.452 Y37.327 E48.25622
G1 X174.909 Y36.97 E48.28648
G1 X174.21 Y36.615 E48.32299
G1 X171.098 Y35.307 E48.48017
G1 X168.718 Y34.217 E48.60207
G1 X166.321 Y33.039 E48.72643
G1 X164.002 Y31.816 E48.84851
G1 X161.674 Y30.501 E48.97301
G1 X159.391 Y29.129 E49.09704
G1 X157.2 Y27.724 E49.21823
G1 X154.985 Y26.211 E49.34314
G1 X152.85 Y24.666 E49.46585
G1 X150.751 Y23.055 E49.58906
G1 X148.692 Y21.377 E49.71274
G1 X146.688 Y19.649 E49.83596
G1 X144.755 Y17.885 E49.95781
G1 X142.812 Y16.007 E50.08364
G1 X140.98 Y14.135 E50.2056
G1 X139.199 Y12.205 E50.32789
G1 X137.441 Y10.194 E50.45227
G1 X135.723 Y8.109 E50.57806
G1 X134.203 Y6.204 E50.69155
G1 X133.692 Y5.592 E50.72867
G1 X132.971 Y4.809 E50.77823
G1 X132.128 Y4.014 E50.83219
G1 X131.2 Y3.276 E50.8874
G1 X130.519 Y2.799 E50.92611
G1 X129.863 Y2.418 E50.96144
G1 X129.077 Y2.083 E51.00122
G1 X128.454 Y1.901 E51.03144
G1 X127.16 Y1.606 E51.09324
G1 X127.007 Y1.564 E51.10063
G1 X126.206 Y1.39 E51.1388
G1 X123.569 Y0.735 E51.26532
G1 X120.787 Y0.00 E51.39931
M204 S3000
M205 X10 Y10
G1 F2400 E45.39931
G0 F3000 X118.597 Y0.00
M204 S1800
M205 X8 Y8
G1 F2400 E51.39931
G1 X123.434 Y1.278 E51.63227
G1 X126.087 Y1.937 E51.75956
G1 X126.857 Y2.104 E51.79624
G1 X127.012 Y2.147 E51.80373
G1 X128.297 Y2.439 E51.8651
G1 X128.92 Y2.621 E51.89532
G1 X129.641 Y2.932 E51.93188
G1 X130.198 Y3.258 E51.96193
G1 X130.852 Y3.715 E51.99908
G1 X131.744 Y4.422 E52.05208
G1 X132.559 Y5.189 E52.1042
G1 X133.262 Y5.951 E52.15247
G1 X133.765 Y6.553 E52.189
G1 X135.291 Y8.465 E52.30291
G1 X137.019 Y10.562 E52.42944
G1 X138.778 Y12.575 E52.55391
G1 X140.58 Y14.527 E52.67762
G1 X142.423 Y16.41 E52.8003
G1 X144.367 Y18.289 E52.9262
G1 X146.322 Y20.073 E53.04944
G1 X148.338 Y21.811 E53.17338
G1 X150.397 Y23.489 E53.29706
G1 X152.522 Y25.12 E53.4218
G1 X154.669 Y26.674 E53.54521
G1 X156.884 Y28.186 E53.67009
G1 X159.103 Y29.609 E53.79283
G1 X161.399 Y30.989 E53.91757
G1 X163.727 Y32.304 E54.04207
G1 X166.074 Y33.542 E54.16563
G1 X168.471 Y34.72 E54.28999
G1 X170.872 Y35.819 E54.41295
G1 X173.959 Y37.116 E54.56886
G1 X174.601 Y37.438 E54.60231
G1 X175.144 Y37.795 E54.63257
G1 X175.743 Y38.306 E54.66923
G1 X176.225 Y38.838 E54.70266
G1 X176.639 Y39.426 E54.73614
G1 X176.976 Y40.059 E54.76953
G1 X177.235 Y40.729 E54.80298
G1 X177.396 Y41.359 E54.83326
G1 X177.512 Y42.381 E54.88115
G1 X177.514 Y61.805 E55.78562
G1 X177.504 Y62.506 E55.81826
G1 X177.444 Y63.256 E55.8533
G1 X177.294 Y63.971 E55.88732
G1 X176.987 Y64.827 E55.92966
G1 X175.846 Y67.353 E56.05872
G1 X174.807 Y69.841 E56.18427
G1 X173.854 Y72.315 E56.30772
G1 X172.961 Y74.843 E56.43257
G1 X172.156 Y77.346 E56.555
G1 X171.408 Y79.92 E56.67981
G1 X170.744 Y82.473 E56.80264
G1 X170.139 Y85.101 E56.92821
G1 X169.617 Y87.704 E57.05183
G1 X169.167 Y90.329 E57.17585
G1 X168.792 Y92.961 E57.29964
G1 X168.493 Y95.586 E57.42266
G1 X168.267 Y98.246 E57.54697
G1 X168.116 Y100.918 E57.67159
G1 X168.04 Y103.586 E57.79587
G1 X168.04 Y106.243 E57.91959
G1 X168.116 Y108.899 E58.04332
G1 X168.265 Y111.561 E58.16747
G1 X168.493 Y114.23 E58.2922
G1 X168.79 Y116.858 E58.41535
G1 X169.162 Y119.469 E58.53816
G1 X169.616 Y122.119 E58.66335
G1 X170.139 Y124.729 E58.7873
G1 X170.722 Y127.272 E58.90878
G1 X171.413 Y129.925 E59.03644
G1 X172.149 Y132.461 E59.1594
G1 X172.957 Y134.973 E59.28227
G1 X173.844 Y137.488 E59.40645
G1 X174.806 Y139.985 E59.53105
G1 X175.845 Y142.47 E59.65647
G1 X176.996 Y145.043 E59.78772
G1 X177.237 Y145.683 E59.81956
G1 X177.422 Y146.455 E59.85653
G1 X177.515 Y147.392 E59.90037
G1 X177.515 Y166.715 E60.80013
G1 X177.505 Y167.444 E60.83408
G1 X177.445 Y168.194 E60.86912
G1 X177.299 Y168.899 E60.90264
G1 X177.068 Y169.577 E60.93599
G1 X176.789 Y170.164 E60.96626
G1 X176.406 Y170.773 E60.99976
G1 X175.951 Y171.329 E61.03321
G1 X175.379 Y171.869 E61.06984
G1 X174.784 Y172.299 E61.10402
G1 X173.944 Y172.739 E61.14818
G1 X172.271 Y173.434 E61.23253
G1 X169.808 Y174.51 E61.35769
G1 X167.412 Y175.642 E61.48108
G1 X165.007 Y176.86 E61.60661
G1 X162.681 Y178.12 E61.72979
G1 X160.374 Y179.458 E61.85397
G1 X158.123 Y180.85 E61.97721
G1 X155.89 Y182.32 E62.1017
G1 X153.709 Y183.846 E62.22564
G1 X151.584 Y185.423 E62.34886
G1 X149.461 Y187.093 E62.47464
G1 X147.451 Y188.769 E62.5965
G1 X145.416 Y190.568 E62.72298
G1 X143.509 Y192.348 E62.84445
G1 X141.597 Y194.239 E62.96967
G1 X139.749 Y196.173 E63.09422
G1 X137.978 Y198.137 E63.21737
G1 X136.231 Y200.186 E63.34275
G1 X134.564 Y202.257 E63.46654
G1 X134.061 Y202.902 E63.50463
G1 X133.571 Y203.451 E63.53889
G1 X132.955 Y204.055 E63.57906
G1 X132.487 Y204.487 E63.60872
G1 X131.895 Y204.999 E63.64517
G1 X131.452 Y205.364 E63.67189
G1 X130.897 Y205.795 E63.70461
G1 X130.401 Y206.157 E63.73321
G1 X129.815 Y206.531 E63.76558
G1 X128.78 Y207.106 E63.82071
G1 X128.103 Y207.426 E63.85558
G1 X127.54 Y207.618 E63.88328
G1 X126.46 Y207.923 E63.93553
G1 X118.595 Y210 E64.31431
M204 S3000
M205 X10 Y10
G1 F2400 E58.31431
G0 F3000 X116.404 Y210
M204 S1800
M205 X8 Y8
G1 F2400 E64.31431
G1 X126.317 Y207.382 E64.79173
G1 X127.387 Y207.079 E64.84351
G1 X127.922 Y206.896 E64.86984
G1 X128.508 Y206.616 E64.90008
G1 X129.543 Y206.041 E64.95522
G1 X130.099 Y205.685 E64.98596
G1 X130.566 Y205.343 E65.01291
G1 X131.108 Y204.922 E65.04487
G1 X131.539 Y204.567 E65.07087
G1 X132.12 Y204.064 E65.10665
G1 X132.575 Y203.644 E65.13549
G1 X133.179 Y203.051 E65.1749
G1 X133.642 Y202.53 E65.20736
G1 X134.122 Y201.913 E65.24376
G1 X135.805 Y199.823 E65.36871
G1 X137.562 Y197.762 E65.49481
G1 X139.344 Y195.786 E65.61871
G1 X141.203 Y193.841 E65.744
G1 X143.115 Y191.95 E65.86922
G1 X145.045 Y190.148 E65.99217
G1 X147.08 Y188.349 E66.11864
G1 X149.102 Y186.663 E66.24123
G1 X151.25 Y184.973 E66.3685
G1 X153.375 Y183.396 E66.49172
G1 X155.582 Y181.852 E66.61714
G1 X157.815 Y180.382 E66.74162
G1 X160.079 Y178.982 E66.86557
G1 X162.414 Y177.628 E66.99126
G1 X164.754 Y176.36 E67.11519
G1 X167.159 Y175.142 E67.24072
G1 X169.584 Y173.997 E67.36559
G1 X172.047 Y172.921 E67.49074
