;FLAVOR:Marlin
;TIME:21037
;Filament used: 15.5008m
;Layer height: 0.2
;MINX:48.707
;MINY:0
;MINZ:0.2
;MAXX:161.29
;MAXY:210
;MAXZ:12.6
;TARGET_MACHINE.NAME:Anycubic i3 Mega
;Generated with Cura_SteamEngine 5.9.0
M140 S90
M105
M190 S90
M104 S240
M105
M109 S240
M82 ;absolute extrusion mode
G21 ;metric values
G90 ;absolute positioning
M82 ;set extruder to absolute mode
M107 ;start with the fan off
G28 X0 Y0 ;move X/Y to min endstops
G28 Z0 ;move Z to min endstops
G1 Z15.0 F100 ;move the platform down 15mm
G92 E0 ;zero the extruded length
G1 F200 E3 ;extrude 3mm of feed stock
G92 E0 ;zero the extruded length again
G1 F100
G0 Y20 F100
M117 Printing...
G5
G92 E0
G92 E0
G1 F2400 E-6
;LAYER_COUNT:63
;LAYER:0
M107
M204 S3000
M205 X10 Y10
G1 F600 Z0.275
G0 F3000 X65.928 Y0.00 Z0.275
M204 S1800
M205 X8 Y8
;TYPE:SKIRT
G1 F600 Z0.2
G1 F2400 E0
G1 X65.244 Y0.316 E0.03508
G1 X64.351 Y0.761 E0.08154
G1 X63.094 Y1.478 E0.14893
G1 X62.431 Y1.891 E0.1853
G1 X61.771 Y2.336 E0.22236
G1 X61.211 Y2.739 E0.25449
G1 X60.368 Y3.388 E0.30403
G1 X59.591 Y4.036 E0.35114
G1 X58.956 Y4.614 E0.39112
G1 X58.256 Y5.296 E0.43663
G1 X57.749 Y5.862 E0.47201
G1 X57.295 Y6.511 E0.50889
G1 X56.928 Y7.123 E0.54212
G1 X56.387 Y8.083 E0.59343
G1 X55.956 Y9.031 E0.64192
G1 X55.732 Y9.785 E0.67855
G1 X55.62 Y10.424 E0.70876
G1 X55.193 Y13.822 E0.86823
G1 X54.794 Y16.372 E0.98841
G1 X54.305 Y18.999 E1.11284
G1 X53.75 Y21.579 E1.23572
G1 X53.116 Y24.17 E1.35993
G1 X52.427 Y26.672 E1.48077
G1 X51.736 Y28.95 E1.59161
G1 X51.482 Y29.911 E1.6379
G1 X49.057 Y39.827 E2.11324
G1 X48.811 Y40.891 E2.16409
G1 X48.71 Y41.915 E2.212
G1 X48.727 Y42.564 E2.24223
G1 X48.851 Y44.081 E2.3131
G1 X48.974 Y45.346 E2.37229
G1 X49.139 Y47.941 E2.49336
G1 X49.234 Y50.646 E2.6194
G1 X49.251 Y53.255 E2.74089
G1 X49.194 Y55.956 E2.86668
G1 X49.067 Y58.524 E2.98641
G1 X48.858 Y61.202 E3.11149
G1 X48.732 Y62.544 E3.17425
G1 X48.707 Y63.199 E3.20477
G1 X48.754 Y63.91 E3.23795
G1 X48.852 Y64.655 E3.27294
G1 X49.966 Y72.112 E3.62402
G1 X50.156 Y73.237 E3.67715
G1 X50.381 Y74.143 E3.72062
G1 X51.277 Y76.786 E3.85057
G1 X52.055 Y79.317 E3.97386
G1 X52.765 Y81.867 E4.09712
G1 X53.408 Y84.471 E4.22201
G1 X53.959 Y86.999 E4.34249
G1 X54.454 Y89.634 E4.46733
G1 X54.87 Y92.248 E4.59058
G1 X55.208 Y94.847 E4.71262
G1 X55.476 Y97.496 E4.8366
G1 X55.669 Y100.15 E4.96051
G1 X55.788 Y102.793 E5.0837
G1 X55.83 Y105.397 E5.20497
G1 X55.798 Y108.067 E5.32931
G1 X55.691 Y110.712 E5.45257
G1 X55.506 Y113.406 E5.57831
G1 X55.258 Y115.975 E5.69849
G1 X54.918 Y118.661 E5.82456
G1 X54.523 Y121.218 E5.94504
G1 X54.041 Y123.834 E6.0689
G1 X53.485 Y126.446 E6.19325
G1 X52.866 Y129 E6.31562
G1 X52.171 Y131.543 E6.43837
G1 X51.392 Y134.108 E6.5632
G1 X51.057 Y135.162 E6.61469
G1 X50.838 Y136.111 E6.66004
G1 X48.937 Y145.039 E7.08509
G1 X48.824 Y145.619 E7.1126
G1 X48.713 Y146.608 E7.15895
G1 X48.727 Y147.334 E7.19276
G1 X49.055 Y151.096 E7.3686
G1 X49.198 Y153.688 E7.48947
G1 X49.27 Y156.328 E7.61245
G1 X49.266 Y158.966 E7.73529
G1 X49.186 Y161.672 E7.86134
G1 X49.035 Y164.275 E7.98275
G1 X48.71 Y167.941 E8.15413
G1 X48.727 Y168.735 E8.19111
G1 X48.847 Y169.581 E8.2309
G1 X48.999 Y170.293 E8.2648
G1 X51.037 Y179.223 E8.69131
G1 X51.375 Y180.591 E8.75692
G1 X51.908 Y182.208 E8.8362
G1 X52.689 Y184.749 E8.95998
G1 X53.38 Y187.25 E9.0808
G1 X54.042 Y189.934 E9.20953
G1 X54.582 Y192.434 E9.32862
G1 X55.065 Y195.018 E9.45103
G1 X55.482 Y197.665 E9.5758
G1 X55.9 Y200.849 E9.72534
G1 X56.084 Y201.557 E9.7594
G1 X56.364 Y202.289 E9.79589
G1 X56.769 Y203.042 E9.8357
G1 X57.205 Y203.656 E9.87077
G1 X57.92 Y204.535 E9.92353
G1 X58.794 Y205.549 E9.98587
G1 X59.612 Y206.404 E10.04096
G1 X60.534 Y207.195 E10.09753
G1 X61.188 Y207.705 E10.13615
G1 X61.999 Y208.261 E10.18193
G1 X62.494 Y208.566 E10.20901
G1 X63.302 Y209.012 E10.25198
G1 X63.808 Y209.253 E10.27808
G1 X64.854 Y209.702 E10.33108
G1 X65.712 Y210 E10.37338
M204 S3000
M205 X10 Y10
G1 F2400 E4.37338
G0 F3000 X67.457 Y210
M204 S1800
M205 X8 Y8
G1 F2400 E10.37338
G1 X67.095 Y209.888 E10.39102
G1 X65.075 Y209.188 E10.49057
G1 X64.049 Y208.747 E10.54257
G1 X63.543 Y208.506 E10.56867
G1 X62.788 Y208.089 E10.60883
G1 X62.293 Y207.784 E10.6359
G1 X61.532 Y207.263 E10.67885
G1 X60.898 Y206.769 E10.71627
G1 X60.017 Y206.017 E10.77021
G1 X59.199 Y205.162 E10.82531
G1 X58.354 Y204.181 E10.8856
G1 X57.662 Y203.332 E10.9366
G1 X57.226 Y202.718 E10.97166
G1 X56.886 Y202.086 E11.00508
G1 X56.626 Y201.416 E11.03854
G1 X56.442 Y200.708 E11.07261
G1 X56.037 Y197.593 E11.21887
G1 X55.618 Y194.931 E11.34435
G1 X55.132 Y192.331 E11.46752
G1 X54.586 Y189.8 E11.58808
G1 X53.924 Y187.116 E11.71681
G1 X53.229 Y184.6 E11.83835
G1 X52.44 Y182.032 E11.96344
G1 X51.919 Y180.456 E12.04073
G1 X51.583 Y179.098 E12.10588
G1 X49.547 Y170.176 E12.532
G1 X49.395 Y169.464 E12.5659
G1 X49.287 Y168.72 E12.60091
G1 X49.268 Y167.99 E12.63491
G1 X49.593 Y164.324 E12.80629
G1 X49.746 Y161.689 E12.92919
G1 X49.826 Y158.983 E13.05525
G1 X49.83 Y156.329 E13.17883
G1 X49.758 Y153.673 E13.30255
G1 X49.613 Y151.047 E13.42501
G1 X49.287 Y147.319 E13.59927
G1 X49.27 Y146.669 E13.62954
G1 X49.374 Y145.726 E13.67372
G1 X49.485 Y145.156 E13.70076
G1 X51.384 Y136.236 E14.12542
G1 X51.591 Y135.332 E14.1686
G1 X51.926 Y134.278 E14.2201
G1 X52.707 Y131.706 E14.34526
G1 X53.406 Y129.148 E14.46874
G1 X54.032 Y126.566 E14.59246
G1 X54.589 Y123.951 E14.71695
G1 X55.074 Y121.319 E14.84157
G1 X55.474 Y118.731 E14.96351
G1 X55.813 Y116.045 E15.08957
G1 X56.065 Y113.444 E15.21126
G1 X56.25 Y110.75 E15.33699
G1 X56.358 Y108.09 E15.46096
G1 X56.39 Y105.404 E15.58604
G1 X56.348 Y102.784 E15.70805
G1 X56.228 Y100.109 E15.83274
G1 X56.035 Y97.455 E15.95664
G1 X55.765 Y94.791 E16.08133
G1 X55.423 Y92.16 E16.20487
G1 X55.007 Y89.546 E16.32812
G1 X54.509 Y86.896 E16.45367
G1 X53.952 Y84.337 E16.57562
G1 X53.309 Y81.733 E16.70052
G1 X52.595 Y79.167 E16.82454
G1 X51.812 Y76.621 E16.94857
G1 X50.924 Y74.007 E17.07712
G1 X50.708 Y73.144 E17.11855
G1 X50.52 Y72.029 E17.1712
G1 X49.407 Y64.581 E17.52186
G1 X49.313 Y63.873 E17.55512
G1 X49.266 Y63.162 E17.5883
G1 X49.29 Y62.596 E17.61467
G1 X49.415 Y61.254 E17.67743
G1 X49.625 Y58.568 E17.80289
G1 X49.754 Y55.968 E17.9241
G1 X49.811 Y53.267 E18.0499
G1 X49.794 Y50.626 E18.17288
G1 X49.699 Y47.921 E18.29891
G1 X49.533 Y45.31 E18.42074
G1 X49.409 Y44.035 E18.48039
G1 X49.287 Y42.549 E18.54981
G1 X49.27 Y41.9 E18.58004
G1 X49.357 Y41.017 E18.62136
G1 X49.601 Y39.96 E18.67187
G1 X52.024 Y30.054 E19.14674
G1 X52.272 Y29.113 E19.19205
G1 X52.963 Y26.835 E19.30289
G1 X53.656 Y24.319 E19.42441
G1 X54.294 Y21.712 E19.54939
G1 X54.856 Y19.101 E19.67375
G1 X55.345 Y16.474 E19.79818
G1 X55.749 Y13.892 E19.91987
G1 X56.172 Y10.521 E20.07807
G1 X56.284 Y9.882 E20.10828
G1 X56.492 Y9.193 E20.14179
G1 X56.875 Y8.358 E20.18456
G1 X57.409 Y7.41 E20.23523
G1 X57.756 Y6.829 E20.26674
G1 X58.166 Y6.236 E20.30031
G1 X58.673 Y5.67 E20.33569
G1 X59.333 Y5.028 E20.37857
G1 X59.95 Y4.466 E20.41743
G1 X60.71 Y3.832 E20.46351
G1 X61.553 Y3.183 E20.51305
G1 X62.085 Y2.8 E20.54358
G1 X62.727 Y2.366 E20.57966
G1 X63.372 Y1.964 E20.61505
G1 X64.601 Y1.262 E20.68096
G1 X65.479 Y0.824 E20.72664
G1 X66.284 Y0.452 E20.76794
G1 X66.995 Y0.149 E20.80392
G1 X67.423 Y0.00 E20.82503
M204 S3000
M205 X10 Y10
G1 F2400 E14.82503
G0 F3000 X69.457 Y0.00
M204 S1800
M205 X8 Y8
G1 F2400 E20.82503
G1 X68.755 Y0.161 E20.85856
G1 X67.902 Y0.426 E20.90016
G1 X67.179 Y0.678 E20.93581
G1 X66.504 Y0.967 E20.97
G1 X65.714 Y1.332 E21.01052
G1 X64.851 Y1.763 E21.05544
G1 X63.65 Y2.45 E21.11987
G1 X63.023 Y2.841 E21.15427
G1 X62.399 Y3.264 E21.18938
G1 X61.895 Y3.627 E21.2183
G1 X61.052 Y4.276 E21.26784
G1 X60.309 Y4.896 E21.3129
G1 X59.71 Y5.442 E21.35064
G1 X59.064 Y6.071 E21.39262
G1 X58.584 Y6.609 E21.42619
G1 X58.218 Y7.145 E21.45642
G1 X57.89 Y7.696 E21.48627
G1 X57.363 Y8.633 E21.53633
G1 X57.027 Y9.358 E21.57354
G1 X56.836 Y9.979 E21.60379
G1 X56.724 Y10.618 E21.634
G1 X56.305 Y13.962 E21.79093
G1 X55.896 Y16.576 E21.91413
G1 X55.407 Y19.203 E22.03856
G1 X54.838 Y21.845 E22.1644
G1 X54.196 Y24.468 E22.29014
G1 X53.499 Y26.998 E22.41234
G1 X52.808 Y29.276 E22.52318
G1 X52.565 Y30.197 E22.56754
G1 X50.145 Y40.093 E23.04191
G1 X49.903 Y41.143 E23.09209
G1 X49.83 Y41.885 E23.12681
G1 X49.847 Y42.534 E23.15704
G1 X49.967 Y43.989 E23.22502
G1 X50.092 Y45.274 E23.28514
G1 X50.259 Y47.901 E23.40771
G1 X50.354 Y50.606 E23.53374
G1 X50.371 Y53.279 E23.65821
G1 X50.314 Y55.98 E23.78401
G1 X50.183 Y58.612 E23.90672
G1 X49.972 Y61.306 E24.03254
G1 X49.848 Y62.648 E24.0953
G1 X49.826 Y63.185 E24.12032
G1 X49.872 Y63.833 E24.15057
G1 X49.962 Y64.507 E24.18224
G1 X51.074 Y71.946 E24.53248
G1 X51.26 Y73.051 E24.58465
G1 X51.467 Y73.87 E24.62399
G1 X52.347 Y76.456 E24.75119
G1 X53.135 Y79.017 E24.87595
G1 X53.853 Y81.599 E25.00074
G1 X54.496 Y84.203 E25.12564
G1 X55.059 Y86.793 E25.24906
G1 X55.56 Y89.458 E25.37532
G1 X55.976 Y92.072 E25.49857
G1 X56.322 Y94.734 E25.62357
G1 X56.594 Y97.414 E25.749
G1 X56.787 Y100.068 E25.87291
G1 X56.908 Y102.775 E25.99909
G1 X56.95 Y105.411 E26.12185
G1 X56.918 Y108.113 E26.24767
G1 X56.809 Y110.788 E26.37233
G1 X56.624 Y113.482 E26.49807
G1 X56.368 Y116.115 E26.62125
G1 X56.03 Y118.801 E26.74731
G1 X55.625 Y121.421 E26.87076
G1 X55.137 Y124.068 E26.99609
G1 X54.58 Y126.683 E27.12059
G1 X53.946 Y129.296 E27.24579
G1 X53.243 Y131.869 E27.36999
G1 X52.462 Y134.441 E27.49516
G1 X52.137 Y135.457 E27.54483
G1 X51.93 Y136.361 E27.58801
G1 X50.033 Y145.273 E28.01229
G1 X49.924 Y145.833 E28.03885
G1 X49.83 Y146.654 E28.07733
G1 X49.847 Y147.304 E28.10761
G1 X50.171 Y150.998 E28.28028
G1 X50.318 Y153.658 E28.40433
G1 X50.39 Y156.33 E28.52879
G1 X50.386 Y159 E28.65312
G1 X50.306 Y161.706 E28.77918
G1 X50.151 Y164.372 E28.90353
G1 X49.919 Y167.047 E29.02855
G1 X49.828 Y167.975 E29.07197
G1 X49.847 Y168.705 E29.10597
G1 X49.943 Y169.347 E29.1362
G1 X50.095 Y170.059 E29.1701
G1 X52.129 Y178.973 E29.59584
G1 X52.463 Y180.321 E29.66051
G1 X52.972 Y181.856 E29.73581
G1 X53.769 Y184.451 E29.86222
G1 X54.468 Y186.982 E29.98448
G1 X55.13 Y189.666 E30.11321
G1 X55.682 Y192.228 E30.23524
G1 X56.171 Y194.844 E30.35916
G1 X56.59 Y197.506 E30.48464
G1 X56.984 Y200.567 E30.62835
G1 X57.168 Y201.275 E30.66242
G1 X57.407 Y201.88 E30.69271
G1 X57.718 Y202.45 E30.72294
G1 X58.096 Y202.978 E30.75318
G1 X58.788 Y203.827 E30.80418
G1 X59.623 Y204.796 E30.86374
G1 X60.381 Y205.591 E30.91489
G1 X61.262 Y206.343 E30.96882
G1 X61.876 Y206.821 E31.00506
G1 X62.609 Y207.322 E31.0464
G1 X63.081 Y207.612 E31.0722
G1 X63.784 Y208 E31.10958
G1 X64.29 Y208.241 E31.13568
G1 X65.296 Y208.674 E31.18668
G1 X67.278 Y209.359 E31.28433
G1 X69.139 Y209.934 E31.37502
G1 X69.379 Y210 E31.38662
M204 S3000
M205 X10 Y10
G1 F2400 E25.38662
G0 F3000 X86.743 Y210
M204 S1800
M205 X8 Y8
G1 F2400 E31.38662
G1 X91.395 Y208.335 E31.61669
G1 X92.728 Y207.824 E31.68316
G1 X93.435 Y207.503 E31.71932
G1 X101.193 Y203.833 E32.11894
G1 X102.613 Y203.125 E32.19283
G1 X103.294 Y202.731 E32.22946
G1 X110.645 Y198.324 E32.62856
G1 X111.792 Y197.604 E32.69162
G1 X112.509 Y197.105 E32.73229
G1 X119.495 Y191.926 E33.13723
G1 X120.726 Y190.972 E33.20975
G1 X121.304 Y190.464 E33.24558
G1 X127.675 Y184.689 E33.64598
G1 X128.832 Y183.594 E33.72016
G1 X129.305 Y183.089 E33.75238
G1 X135.108 Y176.687 E34.15472
G1 X136.116 Y175.53 E34.22617
G1 X136.584 Y174.921 E34.26194
G1 X141.804 Y167.883 E34.66996
G1 X142.605 Y166.754 E34.73441
G1 X143.014 Y166.097 E34.77045
G1 X147.474 Y158.655 E35.17445
G1 X148.269 Y157.268 E35.24889
G1 X152.254 Y148.854 E35.6824
G1 X152.875 Y147.47 E35.75303
G1 X153.147 Y146.75 E35.78887
G1 X156.053 Y138.628 E36.19055
G1 X156.584 Y137.043 E36.26838
G1 X158.844 Y128.036 E36.70079
G1 X159.183 Y126.572 E36.77076
G1 X159.316 Y125.753 E36.8094
G1 X160.571 Y117.294 E37.20759
G1 X160.772 Y115.719 E37.28153
G1 X160.826 Y114.893 E37.32007
G1 X161.245 Y106.335 E37.71905
G1 X161.29 Y104.833 E37.78902
G1 X161.265 Y104.065 E37.8248
G1 X160.841 Y95.435 E38.22713
G1 X160.737 Y93.906 E38.29849
G1 X160.634 Y93.132 E38.33485
G1 X159.353 Y84.504 E38.74101
G1 X159.111 Y83.075 E38.8085
G1 X158.941 Y82.349 E38.84322
G1 X156.846 Y73.989 E39.24453
G1 X156.471 Y72.613 E39.31094
G1 X156.198 Y71.782 E39.35167
G1 X153.239 Y63.511 E39.76071
G1 X152.809 Y62.384 E39.81687
G1 X152.431 Y61.525 E39.86057
G1 X148.727 Y53.693 E40.26399
G1 X148.026 Y52.29 E40.33702
G1 X147.672 Y51.677 E40.36998
G1 X143.238 Y44.278 E40.77164
G1 X142.402 Y42.949 E40.84475
G1 X141.947 Y42.312 E40.8812
G1 X136.82 Y35.398 E41.282
G1 X135.981 Y34.314 E41.34583
G1 X135.427 Y33.668 E41.38546
G1 X129.592 Y27.23 E41.79005
G1 X128.497 Y26.073 E41.86422
G1 X127.992 Y25.6 E41.89644
G1 X121.505 Y19.722 E42.30406
G1 X120.429 Y18.786 E42.37047
G1 X119.843 Y18.336 E42.40487
G1 X112.891 Y13.179 E42.80793
G1 X111.653 Y12.299 E42.87866
G1 X110.911 Y11.837 E42.91936
G1 X103.57 Y7.437 E43.31788
G1 X102.245 Y6.678 E43.38899
G1 X101.573 Y6.348 E43.42385
G1 X93.698 Y2.625 E43.82945
G1 X92.259 Y1.978 E43.90292
G1 X86.736 Y0.00 E44.17609
M204 S3000
M205 X10 Y10
G1 F2400 E38.17609
G0 F3000 X85.076 Y0.00
M204 S1800
M205 X8 Y8
G1 F2400 E44.17609
G1 X92.03 Y2.489 E44.52001
G1 X93.459 Y3.131 E44.59296
G1 X101.326 Y6.851 E44.99817
G1 X101.998 Y7.181 E45.03303
G1 X103.282 Y7.917 E45.10195
G1 X110.616 Y12.313 E45.5001
G1 X111.328 Y12.755 E45.53912
G1 X112.557 Y13.629 E45.60934
G1 X119.503 Y18.781 E46.01203
G1 X120.062 Y19.209 E46.04482
G1 X121.129 Y20.137 E46.11066
G1 X127.609 Y26.009 E46.51786
G1 X128.114 Y26.482 E46.55007
G1 X129.177 Y27.606 E46.62211
G1 X135.002 Y34.033 E47.02601
G1 X135.538 Y34.657 E47.06431
G1 X136.37 Y35.732 E47.12761
G1 X141.491 Y42.637 E47.52791
G1 X141.946 Y43.274 E47.56436
G1 X142.758 Y44.566 E47.63541
G1 X147.187 Y51.957 E48.03663
G1 X147.541 Y52.57 E48.06959
G1 X148.221 Y53.932 E48.14048
G1 X151.919 Y61.751 E48.54323
G1 X152.286 Y62.584 E48.58561
G1 X152.712 Y63.7 E48.64124
G1 X155.666 Y71.957 E49.04958
G1 X155.939 Y72.788 E49.09031
G1 X156.303 Y74.125 E49.15483
G1 X158.396 Y82.478 E49.55581
G1 X158.559 Y83.169 E49.58887
G1 X158.799 Y84.586 E49.65579
G1 X160.079 Y93.207 E50.06162
G1 X160.178 Y93.944 E50.09625
G1 X160.282 Y95.462 E50.1671
G1 X160.705 Y104.084 E50.56906
G1 X160.73 Y104.816 E50.60316
G1 X160.686 Y106.308 E50.67266
G1 X160.267 Y114.857 E51.07122
G1 X160.216 Y115.648 E51.10813
G1 X160.017 Y117.212 E51.18154
G1 X158.763 Y125.664 E51.57941
G1 X158.637 Y126.446 E51.61629
G1 X158.301 Y127.9 E51.68578
G1 X156.053 Y136.865 E52.11615
G1 X155.526 Y138.439 E52.19344
G1 X152.623 Y146.553 E52.59472
G1 X152.364 Y147.241 E52.62895
G1 X151.748 Y148.614 E52.69902
G1 X147.783 Y156.99 E53.13054
G1 X146.994 Y158.367 E53.20444
G1 X142.538 Y165.802 E53.60806
G1 X142.148 Y166.43 E53.64248
G1 X141.354 Y167.549 E53.70637
G1 X136.14 Y174.58 E54.11396
G1 X135.694 Y175.162 E54.1481
G1 X134.693 Y176.311 E54.21906
G1 X128.896 Y182.706 E54.62098
G1 X128.423 Y183.211 E54.65319
G1 X127.299 Y184.274 E54.72523
G1 X120.934 Y190.043 E55.12523
G1 X120.356 Y190.551 E55.16107
G1 X119.161 Y191.476 E55.23143
G1 X112.175 Y196.655 E55.63637
G1 X111.494 Y197.13 E55.67503
G1 X110.357 Y197.844 E55.73755
G1 X103.014 Y202.246 E56.1362
G1 X102.333 Y202.64 E56.17284
G1 X100.954 Y203.327 E56.24458
G1 X93.203 Y206.993 E56.64383
G1 X92.496 Y207.314 E56.67999
G1 X91.206 Y207.808 E56.74431
G1 X85.081 Y210 E57.04723
M204 S3000
M205 X10 Y10
G1 F2400 E51.04723
G0 F3000 X83.42 Y210
M204 S1800
M205 X8 Y8
G1 F2400 E57.04723
G1 X91.017 Y207.281 E57.42295
G1 X92.264 Y206.804 E57.48512
G1 X92.971 Y206.483 E57.52127
G1 X100.715 Y202.821 E57.92015
G1 X102.053 Y202.155 E57.98975
G1 X102.734 Y201.761 E58.02638
G1 X110.069 Y197.364 E58.42459
G1 X111.196 Y196.656 E58.48657
G1 X111.854 Y196.196 E58.52395
G1 X118.827 Y191.026 E58.92815
G1 X120.013 Y190.108 E58.99799
G1 X120.564 Y189.623 E59.03217
G1 X126.923 Y183.859 E59.43181
G1 X128.014 Y182.828 E59.50171
G1 X128.487 Y182.323 E59.53393
G1 X134.278 Y175.935 E59.93541
G1 X135.272 Y174.794 E60.00588
G1 X135.695 Y174.24 E60.03833
G1 X140.904 Y167.215 E60.44556
G1 X141.691 Y166.106 E60.50888
G1 X142.062 Y165.507 E60.54169
