;FLAVOR:Marlin
;TIME:10350
;Filament used: 7.46765m
;Layer height: 0.2
;MINX:64.817
;MINY:13.216
;MINZ:0.2
;MAXX:144.028
;MAXY:196.786
;MAXZ:9.8
;TARGET_MACHINE.NAME:Anycubic i3 Mega
;Generated with Cura_SteamEngine 5.9.0
M140 S90
M105
M190 S90
M104 S240
M105
M109 S240
M82 ;absolute extrusion mode
G21 ;metric values
G90 ;absolute positioning
M82 ;set extruder to absolute mode
M107 ;start with the fan off
G28 X0 Y0 ;move X/Y to min endstops
G28 Z0 ;move Z to min endstops
G1 Z15.0 F100 ;move the platform down 15mm
G92 E0 ;zero the extruded length
G1 F200 E3 ;extrude 3mm of feed stock
G92 E0 ;zero the extruded length again
G1 F100
G0 Y20 F100
M117 Printing...
G5
G92 E0
G92 E0
G1 F2400 E-6
;LAYER_COUNT:49
;LAYER:0
M107
M204 S3000
M205 X10 Y10
G1 F600 Z0.275
G0 F3000 X65.012 Y95.01 Z0.275
M204 S1800
M205 X8 Y8
;TYPE:SKIRT
G1 F600 Z0.2
G1 F2400 E0
G1 X65.379 Y88.064 E0.32389
G1 X65.511 Y86.215 E0.4102
G1 X66.113 Y79.475 E0.72529
G1 X66.335 Y77.438 E0.82071
G1 X67.17 Y70.891 E1.12803
G1 X67.46 Y68.94 E1.21988
G1 X68.548 Y62.488 E1.52455
G1 X68.765 Y61.318 E1.57996
G1 X70.161 Y54.782 E1.89117
G1 X70.429 Y53.625 E1.94647
G1 X72.089 Y47.347 E2.24885
G1 X72.332 Y46.485 E2.29055
G1 X72.546 Y45.795 E2.32419
G1 X74.261 Y40.499 E2.5834
G1 X74.438 Y39.976 E2.60911
G1 X74.886 Y38.778 E2.66867
G1 X76.642 Y34.318 E2.89186
G1 X77.109 Y33.191 E2.94866
G1 X79.292 Y28.657 E3.18298
G1 X79.717 Y27.808 E3.22719
G1 X80.269 Y26.85 E3.27868
G1 X82.201 Y23.607 E3.45445
G1 X82.715 Y22.771 E3.50015
G1 X83.325 Y21.937 E3.54826
G1 X85.349 Y19.254 E3.70475
G1 X85.817 Y18.651 E3.7403
G1 X86.242 Y18.159 E3.77057
G1 X86.667 Y17.717 E3.79912
G1 X88.846 Y15.533 E3.94278
G1 X89.422 Y14.975 E3.98012
G1 X89.915 Y14.552 E4.01037
G1 X90.684 Y14.04 E4.05339
G1 X91.264 Y13.749 E4.0836
G1 X92.07 Y13.459 E4.12349
G1 X92.907 Y13.277 E4.16337
G1 X93.554 Y13.216 E4.19363
G1 X94.416 Y13.237 E4.23379
G1 X95.324 Y13.385 E4.27662
G1 X96.127 Y13.578 E4.31508
G1 X107.401 Y16.508 E4.85748
G1 X134.231 Y23.356 E6.14685
G1 X134.976 Y23.559 E6.18281
G1 X135.592 Y23.767 E6.21308
G1 X136.428 Y24.171 E6.25632
G1 X137.085 Y24.605 E6.29298
G1 X137.634 Y25.068 E6.32642
G1 X138.223 Y25.707 E6.36689
G1 X138.797 Y26.526 E6.41346
G1 X142.874 Y33.81 E6.80215
G1 X143.275 Y34.553 E6.84146
G1 X143.599 Y35.27 E6.8781
G1 X143.816 Y35.954 E6.91151
G1 X143.973 Y36.789 E6.95108
G1 X144.015 Y37.389 E6.97908
G1 X144.028 Y38.253 E7.01932
G1 X144.023 Y74.454 E8.70499
G1 X144.01 Y75.193 E8.7394
G1 X143.936 Y76.028 E8.77844
G1 X143.736 Y76.918 E8.82091
G1 X143.547 Y77.539 E8.85114
G1 X142.803 Y80.101 E8.97537
G1 X142.145 Y82.634 E9.09723
G1 X141.541 Y85.253 E9.22238
G1 X141.016 Y87.876 E9.34694
G1 X140.577 Y90.444 E9.46825
G1 X140.201 Y93.078 E9.59215
G1 X139.909 Y95.665 E9.71337
G1 X139.681 Y98.332 E9.83801
G1 X139.534 Y100.963 E9.96071
G1 X139.458 Y103.636 E10.08523
G1 X139.458 Y106.277 E10.20821
G1 X139.534 Y108.914 E10.33105
G1 X139.683 Y111.554 E10.45417
G1 X139.909 Y114.213 E10.57843
G1 X140.204 Y116.806 E10.69995
G1 X140.579 Y119.437 E10.8237
G1 X141.022 Y122.028 E10.9461
G1 X141.537 Y124.597 E11.0681
G1 X142.146 Y127.237 E11.19426
G1 X142.816 Y129.814 E11.31825
G1 X143.764 Y133.041 E11.47486
G1 X143.932 Y133.82 E11.51196
G1 X144.005 Y134.66 E11.55123
G1 X144.024 Y135.753 E11.60213
G1 X144.028 Y179.581 E13.64294
G1 X144.017 Y180.364 E13.67941
G1 X143.946 Y181.215 E13.71917
G1 X143.801 Y181.916 E13.7525
G1 X143.552 Y182.666 E13.7893
G1 X143.213 Y183.378 E13.82602
G1 X142.747 Y184.098 E13.86596
G1 X142.286 Y184.649 E13.89941
G1 X141.661 Y185.233 E13.93924
G1 X141.082 Y185.652 E13.97252
G1 X140.393 Y186.037 E14.00927
G1 X139.486 Y186.402 E14.0548
G1 X138.115 Y186.749 E14.12065
G1 X125.573 Y189.678 E14.72037
G1 X95.963 Y196.478 E16.13503
G1 X95.135 Y196.654 E16.17444
G1 X94.323 Y196.769 E16.21263
G1 X93.673 Y196.786 E16.24291
G1 X92.75 Y196.695 E16.2861
G1 X92.049 Y196.534 E16.31959
G1 X91.307 Y196.268 E16.35629
G1 X90.546 Y195.88 E16.39607
G1 X89.899 Y195.437 E16.43258
G1 X89.412 Y195.017 E16.46252
G1 X88.808 Y194.429 E16.50177
G1 X86.776 Y192.391 E16.63578
G1 X86.178 Y191.768 E16.67599
G1 X85.787 Y191.315 E16.70386
G1 X85.356 Y190.758 E16.73665
G1 X83.363 Y188.115 E16.89079
G1 X82.688 Y187.189 E16.94415
G1 X82.195 Y186.383 E16.98814
G1 X80.172 Y182.986 E17.17225
G1 X79.665 Y182.085 E17.22039
G1 X79.226 Y181.209 E17.26601
G1 X77.335 Y177.273 E17.46934
G1 X76.783 Y176.039 E17.53229
G1 X74.809 Y171.026 E17.78316
G1 X74.524 Y170.266 E17.82096
G1 X74.211 Y169.351 E17.86599
G1 X72.531 Y164.161 E18.12
G1 X72.254 Y163.251 E18.16429
G1 X70.542 Y156.811 E18.47458
G1 X70.266 Y155.693 E18.5282
G1 X68.846 Y149.058 E18.84415
G1 X68.596 Y147.794 E18.90415
G1 X67.456 Y141.038 E19.22319
G1 X67.168 Y139.089 E19.31493
G1 X66.331 Y132.54 E19.62235
G1 X66.111 Y130.503 E19.71776
G1 X65.509 Y123.763 E20.03285
G1 X65.373 Y121.82 E20.12355
G1 X65.006 Y114.875 E20.44738
G1 X64.942 Y113.042 E20.53279
G1 X64.817 Y105.908 E20.86503
G1 X64.818 Y103.979 E20.95485
G1 X64.942 Y96.938 E21.28276
G1 X65.012 Y95.01 E21.3726
M204 S3000
M205 X10 Y10
G0 F3000 X65.571 Y95.04
M204 S1800
M205 X8 Y8
G1 F2400 X65.938 Y88.104 E21.69602
G1 X66.069 Y86.265 E21.78186
G1 X66.67 Y79.535 E22.09649
G1 X66.89 Y77.509 E22.19138
G1 X67.724 Y70.973 E22.49819
G1 X68.012 Y69.033 E22.58952
G1 X69.099 Y62.59 E22.89377
G1 X69.313 Y61.435 E22.94847
G1 X70.707 Y54.908 E23.25925
G1 X70.975 Y53.751 E23.31455
G1 X72.628 Y47.499 E23.61567
G1 X72.867 Y46.651 E23.6567
G1 X73.079 Y45.967 E23.69004
G1 X74.791 Y40.679 E23.94885
G1 X74.963 Y40.172 E23.97378
G1 X75.407 Y38.983 E24.03288
G1 X77.159 Y34.532 E24.25562
G1 X77.614 Y33.434 E24.31096
G1 X79.793 Y28.907 E24.54491
G1 X80.202 Y28.088 E24.58753
G1 X80.75 Y27.137 E24.63864
G1 X82.678 Y23.9 E24.81408
G1 X83.192 Y23.064 E24.85978
G1 X83.772 Y22.274 E24.90541
G1 X85.792 Y19.597 E25.06157
G1 X86.241 Y19.017 E25.09572
G1 X86.646 Y18.547 E25.12461
G1 X87.063 Y18.113 E25.15264
G1 X89.236 Y15.935 E25.2959
G1 X89.787 Y15.4 E25.33166
G1 X90.28 Y14.977 E25.36191
G1 X90.935 Y14.541 E25.39855
G1 X91.515 Y14.25 E25.42876
G1 X92.257 Y13.987 E25.46542
G1 X92.96 Y13.835 E25.49891
G1 X93.607 Y13.774 E25.52917
G1 X94.4 Y13.797 E25.56611
G1 X95.193 Y13.929 E25.60355
G1 X95.986 Y14.12 E25.64153
G1 X107.263 Y17.051 E26.18408
G1 X134.084 Y23.896 E27.47301
G1 X134.797 Y24.09 E27.50741
G1 X135.413 Y24.298 E27.53769
G1 X136.122 Y24.64 E27.57434
G1 X136.724 Y25.033 E27.60782
G1 X137.273 Y25.496 E27.64126
G1 X137.765 Y26.029 E27.67504
G1 X138.308 Y26.8 E27.71895
G1 X142.382 Y34.077 E28.10728
G1 X142.766 Y34.786 E28.14483
G1 X143.065 Y35.439 E28.17827
G1 X143.282 Y36.123 E28.21168
G1 X143.414 Y36.828 E28.24508
G1 X143.456 Y37.428 E28.27309
G1 X143.468 Y38.253 E28.31151
G1 X143.463 Y74.445 E29.99676
G1 X143.452 Y75.147 E30.02945
G1 X143.389 Y75.906 E30.06492
G1 X143.2 Y76.755 E30.10542
G1 X143.011 Y77.376 E30.13564
G1 X142.265 Y79.945 E30.26021
G1 X141.599 Y82.508 E30.38352
G1 X140.995 Y85.127 E30.50867
G1 X140.467 Y87.766 E30.63399
G1 X140.025 Y90.35 E30.75606
G1 X139.647 Y92.999 E30.88065
G1 X139.351 Y95.617 E31.00334
G1 X139.123 Y98.284 E31.12798
G1 X138.974 Y100.947 E31.25217
G1 X138.898 Y103.62 E31.37669
G1 X138.898 Y106.277 E31.50041
G1 X138.974 Y108.93 E31.62399
G1 X139.125 Y111.601 E31.74856
G1 X139.351 Y114.26 E31.87282
G1 X139.65 Y116.885 E31.99585
G1 X140.027 Y119.531 E32.1203
G1 X140.473 Y122.138 E32.24346
G1 X140.991 Y124.723 E32.36622
G1 X141.6 Y127.363 E32.49237
G1 X142.274 Y129.955 E32.61708
G1 X143.217 Y133.162 E32.77274
G1 X143.374 Y133.869 E32.80646
G1 X143.445 Y134.67 E32.8439
G1 X143.464 Y135.753 E32.89434
G1 X143.468 Y179.573 E34.93478
G1 X143.457 Y180.356 E34.97125
G1 X143.397 Y181.105 E35.00623
G1 X143.269 Y181.742 E35.03649
G1 X143.046 Y182.425 E35.06994
G1 X142.707 Y183.137 E35.10666
G1 X142.317 Y183.739 E35.14006
G1 X141.856 Y184.29 E35.17352
G1 X141.33 Y184.781 E35.20702
G1 X140.806 Y185.165 E35.23727
G1 X140.181 Y185.519 E35.27072
G1 X139.348 Y185.859 E35.31261
G1 X137.988 Y186.204 E35.37795
G1 X125.448 Y189.132 E35.97757
G1 X95.847 Y195.93 E37.39179
G1 X95.019 Y196.106 E37.43121
G1 X94.308 Y196.209 E37.46466
G1 X93.658 Y196.226 E37.49494
G1 X92.875 Y196.149 E37.53158
G1 X92.174 Y195.988 E37.56507
G1 X91.499 Y195.742 E37.59852
G1 X90.86 Y195.416 E37.63192
G1 X90.265 Y195.013 E37.66539
G1 X89.778 Y194.593 E37.69533
G1 X89.205 Y194.034 E37.73261
G1 X87.18 Y192.003 E37.86615
G1 X86.602 Y191.402 E37.90498
G1 X86.211 Y190.949 E37.93285
G1 X85.803 Y190.421 E37.96392
G1 X83.815 Y187.784 E38.11769
G1 X83.166 Y186.897 E38.16887
G1 X82.676 Y186.097 E38.21255
G1 X80.66 Y182.711 E38.39605
G1 X80.166 Y181.834 E38.44292
G1 X79.731 Y180.966 E38.48813
G1 X77.846 Y177.044 E38.69075
G1 X77.304 Y175.834 E38.75249
G1 X75.33 Y170.821 E39.00336
G1 X75.054 Y170.085 E39.03996
G1 X74.744 Y169.179 E39.08455
G1 X73.067 Y163.998 E39.33812
G1 X72.794 Y163.102 E39.38174
G1 X72.611 Y162.437 E39.41385
G1 X71.086 Y156.677 E39.6913
G1 X70.814 Y155.576 E39.74411
G1 X69.395 Y148.949 E40.05969
G1 X69.148 Y147.701 E40.11893
G1 X68.01 Y140.956 E40.43744
G1 X67.723 Y139.018 E40.52867
G1 X66.888 Y132.48 E40.83558
G1 X66.669 Y130.453 E40.93051
G1 X66.068 Y123.724 E41.24509
G1 X65.932 Y121.79 E41.33537
G1 X65.566 Y114.855 E41.65874
G1 X65.502 Y113.032 E41.74368
G1 X65.377 Y105.908 E42.07545
G1 X65.378 Y103.989 E42.16481
G1 X65.502 Y96.958 E42.49225
G1 X65.571 Y95.04 E42.58162
M204 S3000
M205 X10 Y10
G0 F3000 X66.13 Y95.07
M204 S1800
M205 X8 Y8
G1 F2400 X66.497 Y88.144 E42.90457
G1 X66.627 Y86.315 E42.98996
G1 X67.227 Y79.595 E43.30411
G1 X67.445 Y77.58 E43.39849
G1 X68.278 Y71.055 E43.70478
G1 X68.564 Y69.126 E43.79559
G1 X69.65 Y62.692 E44.09942
G1 X69.861 Y61.552 E44.1534
G1 X71.253 Y55.034 E44.46375
G1 X71.521 Y53.877 E44.51905
G1 X73.167 Y47.651 E44.81892
G1 X73.402 Y46.817 E44.85927
G1 X73.612 Y46.139 E44.89232
G1 X75.321 Y40.859 E45.15074
G1 X75.488 Y40.368 E45.17489
G1 X75.928 Y39.188 E45.23353
G1 X77.677 Y34.746 E45.45582
G1 X78.119 Y33.677 E45.50969
G1 X80.294 Y29.157 E45.74326
G1 X80.687 Y28.368 E45.7843
G1 X81.231 Y27.424 E45.83503
G1 X83.156 Y24.192 E46.0102
G1 X83.644 Y23.395 E46.05372
G1 X84.219 Y22.611 E46.09899
G1 X86.235 Y19.94 E46.25481
G1 X86.684 Y19.36 E46.28897
G1 X87.05 Y18.935 E46.31508
G1 X87.459 Y18.509 E46.34258
G1 X89.627 Y16.336 E46.48551
G1 X90.152 Y15.825 E46.51963
G1 X90.645 Y15.402 E46.54987
G1 X91.186 Y15.042 E46.58013
G1 X91.766 Y14.751 E46.61035
G1 X92.379 Y14.534 E46.64063
G1 X93.013 Y14.393 E46.67087
G1 X93.66 Y14.332 E46.70113
G1 X94.309 Y14.35 E46.73136
G1 X95.062 Y14.474 E46.7669
G1 X95.845 Y14.662 E46.8044
G1 X107.125 Y17.594 E47.34709
G1 X133.938 Y24.437 E48.63564
G1 X134.618 Y24.621 E48.66844
G1 X135.234 Y24.829 E48.69871
G1 X135.819 Y25.111 E48.72895
G1 X136.365 Y25.463 E48.7592
G1 X136.864 Y25.879 E48.78945
G1 X137.308 Y26.353 E48.8197
G1 X137.819 Y27.074 E48.86085
G1 X141.89 Y34.344 E49.24883
G1 X142.258 Y35.022 E49.28475
G1 X142.532 Y35.611 E49.315
G1 X142.732 Y36.229 E49.34525
G1 X142.855 Y36.867 E49.3755
G1 X142.897 Y37.467 E49.40351
G1 X142.908 Y38.253 E49.44011
G1 X142.903 Y74.436 E51.12494
G1 X142.892 Y75.138 E51.15763
G1 X142.842 Y75.785 E51.18785
G1 X142.664 Y76.592 E51.22633
G1 X142.475 Y77.213 E51.25656
G1 X141.727 Y79.789 E51.38146
G1 X141.053 Y82.382 E51.50622
G1 X140.449 Y85.001 E51.63137
G1 X139.918 Y87.656 E51.75744
G1 X139.473 Y90.255 E51.88023
G1 X139.093 Y92.92 E52.00557
G1 X138.793 Y95.569 E52.12971
G1 X138.565 Y98.236 E52.25435
G1 X138.414 Y100.931 E52.38004
G1 X138.338 Y103.604 E52.50455
G1 X138.338 Y106.277 E52.62902
G1 X138.414 Y108.946 E52.75335
G1 X138.567 Y111.648 E52.87937
G1 X138.793 Y114.307 E53.00363
G1 X139.096 Y116.964 E53.12815
G1 X139.475 Y119.626 E53.25336
G1 X139.924 Y122.248 E53.37722
G1 X140.445 Y124.849 E53.50074
G1 X141.054 Y127.489 E53.6269
G1 X141.732 Y130.096 E53.75233
G1 X142.671 Y133.287 E53.90722
G1 X142.816 Y133.92 E53.93746
G1 X142.885 Y134.68 E53.97299
G1 X142.904 Y135.753 E54.02296
G1 X142.908 Y179.565 E56.06303
G1 X142.897 Y180.348 E56.0995
G1 X142.848 Y180.995 E56.12971
G1 X142.72 Y181.632 E56.15996
G1 X142.515 Y182.248 E56.19019
G1 X142.235 Y182.835 E56.22048
G1 X141.885 Y183.382 E56.25072
G1 X141.471 Y183.883 E56.28098
G1 X140.999 Y184.329 E56.31122
G1 X140.475 Y184.713 E56.34147
G1 X139.908 Y185.03 E56.37172
G1 X139.21 Y185.316 E56.40684
G1 X137.861 Y185.659 E56.47165
G1 X125.323 Y188.586 E57.07117
G1 X95.73 Y195.382 E58.48502
G1 X94.935 Y195.552 E58.52287
G1 X94.293 Y195.649 E58.55311
G1 X93.643 Y195.666 E58.58338
G1 X92.997 Y195.603 E58.61361
G1 X92.363 Y195.461 E58.64386
G1 X91.751 Y195.242 E58.67413
G1 X91.171 Y194.95 E58.70436
G1 X90.631 Y194.589 E58.73461
G1 X90.144 Y194.169 E58.76455
G1 X89.602 Y193.639 E58.79985
G1 X87.583 Y191.614 E58.933
G1 X87.026 Y191.036 E58.97038
G1 X86.654 Y190.606 E58.99686
G1 X86.25 Y190.084 E59.02759
G1 X84.266 Y187.453 E59.18103
G1 X83.643 Y186.604 E59.23007
G1 X83.157 Y185.811 E59.27338
G1 X81.148 Y182.436 E59.45626
G1 X80.667 Y181.583 E59.50186
G1 X80.236 Y180.723 E59.54666
G1 X78.357 Y176.815 E59.74857
G1 X77.825 Y175.629 E59.8091
G1 X75.851 Y170.616 E60.05997
G1 X75.584 Y169.904 E60.09538
G1 X75.277 Y169.007 E60.13952
G1 X73.603 Y163.835 E60.39265
G1 X73.334 Y162.953 E60.43559
G1 X73.152 Y162.294 E60.46743
G1 X71.63 Y156.542 E60.74448
G1 X71.362 Y155.459 E60.79643
G1 X69.944 Y148.84 E61.11163
G1 X69.7 Y147.608 E61.17011
G1 X68.564 Y140.874 E61.48811
G1 X68.278 Y138.947 E61.57882
G1 X67.445 Y132.42 E61.88521
G1 X67.227 Y130.403 E61.97968
G1 X66.627 Y123.685 E62.29374
G1 X66.491 Y121.761 E62.38355
G1 X66.126 Y114.835 E62.7065
G1 X66.062 Y113.022 E62.79098
G1 X65.937 Y105.908 E63.12229
G1 X65.938 Y103.999 E63.21118
G1 X66.062 Y96.978 E63.53816
G1 X66.13 Y95.07 E63.62706
M204 S3000
M205 X10 Y10
G1 F2400 E57.62706
;MESH:C.stl
G0 F3000 X70.692 Y96.206
G0 X71.784 Y96.263
G0 X94.655 Y133.48
G0 X95.428 Y134.544
G0 X96.255 Y135.339
G0 X97.051 Y135.793
G0 X103.208 Y136.965
M204 S1800
M205 X8 Y8
;TYPE:WALL-INNER
G1 F2400 E63.62706
G1 F1500 X97.936 Y136.963 E63.87254
G1 X96.922 Y136.766 E63.92064
G1 X96.689 Y136.683 E63.93216
G1 X95.688 Y136.105 E63.98598
G1 X94.722 Y135.187 E64.04803
G1 X93.848 Y133.99 E64.11705
G1 X93.103 Y132.628 E64.18934
G1 X92.334 Y130.872 E64.2786
G1 X91.71 Y129.092 E64.36643
G1 X91.088 Y126.928 E64.47127
G1 X90.576 Y124.74 E64.57591
G1 X90.084 Y122.197 E64.69652
G1 X89.68 Y119.621 E64.81793
G1 X89.329 Y116.777 E64.95137
G1 X89.07 Y113.963 E65.08295
G1 X88.88 Y110.989 E65.22172
G1 X88.76 Y104.971 E65.502
G1 X88.882 Y98.945 E65.78265
G1 X89.07 Y96.037 E65.91834
G1 X89.338 Y93.182 E66.05187
G1 X89.68 Y90.375 E66.18354
G1 X90.084 Y87.799 E66.30495
G1 X90.573 Y85.254 E66.42563
G1 X91.106 Y83.001 E66.53343
G1 X91.71 Y80.904 E66.63505
G1 X92.334 Y79.124 E66.72288
G1 X93.104 Y77.366 E66.81224
G1 X93.849 Y76.014 E66.88412
G1 X94.723 Y74.808 E66.95348
G1 X95.691 Y73.889 E67.01563
G1 X96.694 Y73.311 E67.06953
G1 X96.983 Y73.215 E67.08371
G1 X97.945 Y73.037 E67.12927
G1 X103.234 Y73.036 E67.37555
G1 X136.224 Y73.626 E68.91194
G1 X136.227 Y37.906 E70.57522
G1 X132.315 Y30.917 E70.94817
G1 X94.221 Y21.189 E72.77891
G1 X91.908 Y23.505 E72.93132
G1 X89.196 Y27.102 E73.14108
G1 X86.587 Y31.483 E73.37852
G1 X84.124 Y36.605 E73.64316
G1 X81.843 Y42.393 E73.93285
G1 X79.772 Y48.803 E74.24651
G1 X77.938 Y55.73 E74.58018
G1 X76.336 Y63.212 E74.93647
G1 X75.002 Y71.118 E75.30981
G1 X73.965 Y79.255 E75.69177
G1 X73.209 Y87.696 E76.08639
G1 X72.752 Y96.306 E76.48787
G1 X72.601 Y105 E76.89276
G1 X72.752 Y113.69 E77.29746
G1 X73.209 Y122.3 E77.69895
G1 X73.965 Y130.741 E78.09357
G1 X75.002 Y138.882 E78.47571
G1 X76.336 Y146.788 E78.84905
G1 X77.934 Y154.265 E79.20507
G1 X79.772 Y161.193 E79.53883
G1 X81.843 Y167.603 E79.8525
G1 X84.124 Y173.395 E80.14236
G1 X86.587 Y178.513 E80.40683
G1 X89.196 Y182.898 E80.64443
G1 X91.908 Y186.491 E80.85404
G1 X94.239 Y188.825 E81.00764
G1 X136.228 Y179.173 E83.01381
G1 X136.224 Y136.236 E85.01314
G1 X103.208 Y136.965 E86.55088
M204 S3000
M205 X10 Y10
G0 F3000 X97.99 Y136.473
G0 X97.991 Y136.401
M204 S1800
M205 X8 Y8
G1 F1500 X97.105 Y136.235 E86.59285
